X: 1
T: Bad Boy, No Biscuit
M: 4/4
L: 1/8
R: reel
K: Gmaj
D3B BAGA|B2dB ABBA|GEED E2GA|~B3d AGEG|
DBBA B2DB|B2dB ABBA|GEED EFGA|1 BGAF G2GE:|2 BGAF G2Bd||
|:e3f edBd|efge edBe|d2d^c defd|ga (3gfe dBAB|
G3A BGBd|efge dBAB|GEED EFGA|1 BGAF G2Bd:|2 BGAF G2GE||
